X:241
T:Stars and Stripes Forever
T:With Web-footed Friends 
C:John Philip Sousa Lyrics by Fred Allen
N:Arrangement by Jo Anne Rocke
Z:B Quern & S Gowan
L:1/4
M:C|
K:C
P:Intro
C2 B,>C|A,C2D|_E=EF^F|Gz"G7"G2||
P:A
"C"Ez/2.E/2"E7".E.E|"Am"Ez/2.E/2"Dm".F.F|"G"(D/2^C/2).D/2.E/2 "D7".D=C|"G7".B,.A,.B,.G,|
"C"Gz/2.G/2"G7".G.G|"C"G z/2 G/2 "E7" .^G .G|"Am"(A/2^G/2).A/2.c/2 .B.A|"E"^G3G|
"C"=Gz/2G/2 cz/2A/2|.G .^F.G.E|"G"D "// Tacet"G/2^F/2G/2F/2 G|"G"D "// Tacet"G/2^F/2G/2F/2 G|
"C"=Gz/2G/2 cz/2A/2|.G . ^F.G.E|"D7"D ^F/2=E/2F/2E/2 F|"G"G2 "G7"G>=F||
P:B
"C"E2(A>G)|"G7"B,2 [A,2A2]|[G,2G2] F2|"C"E2 "C7"D>E|
"F"FA2c|"D7"d2 c>-c|"Dm"E4|"G"D2 "G7"G>F|
"C"E2A>G|"G"B,2 [A,2A2]|[G,2G2] F2|"C"E2 "C7"D>E|
"F"FGd>c|"Em"EG"Am"C>E|"Dm"D2-"G7"D2|"C"C2 "C7"C2||
